X: 14
T: New Custom House, The
C: Paddy Kelly
Z: Fernando Durbán Galnares
S: https://thesession.org/tunes/175#setting46689
R: reel
M: 4/4
L: 1/8
K: Emix
|:ed|B2 EF GABc|dBAF DEFA|B2 EF GABc|dcdf edBA|
B2 EF GABc|dBAF DEFA|B2EF GABc|dBAF E2:|
|:ed|Bee^d e2 de|fe^de fgaf|Bee^d e2 de|fbba fe^de|
Bee^d e2 de|fe^de fgaf|bgaf gf^de|fbba fe:|

